public/payments/crypto/usd-coin.svg

<svg width="19" height="19" viewBox="0 0 19 19" fill="none" xmlns="http://www.w3.org/2000/svg">
<g clip-path="url(#clip0_241_229)">
<path d="M9.5 19C14.7646 19 19 14.7646 19 9.5C19 4.23538 14.7646 0 9.5 0C4.23538 0 0 4.23538 0 9.5C0 14.7646 4.23538 19 9.5 19Z" fill="#2775CA"/>
<path d="M12.1125 11.0041C12.1125 9.61875 11.2812 9.14375 9.61874 8.94586C8.43123 8.7875 8.19373 8.47086 8.19373 7.91663C8.19373 7.3624 8.5896 7.00625 9.38123 7.00625C10.0937 7.00625 10.4896 7.24375 10.6875 7.8375C10.7271 7.95625 10.8459 8.03538 10.9646 8.03538H11.5979C11.7562 8.03538 11.875 7.91663 11.875 7.75836V7.71875C11.7166 6.84788 11.0041 6.175 10.0937 6.09586V5.14586C10.0937 4.9875 9.97499 4.86875 9.7771 4.82913H9.18335C9.02498 4.82913 8.90623 4.94788 8.86662 5.14586V6.05625C7.67912 6.21461 6.9271 7.00625 6.9271 7.99586C6.9271 9.30211 7.71873 9.81663 9.38123 10.0146C10.4896 10.2125 10.8459 10.45 10.8459 11.0834C10.8459 11.7167 10.2916 12.1521 9.5396 12.1521C8.51037 12.1521 8.15412 11.7166 8.03537 11.1229C7.99585 10.9646 7.8771 10.8854 7.75835 10.8854H7.08537C6.9271 10.8854 6.80835 11.0041 6.80835 11.1625V11.2021C6.96662 12.1916 7.59998 12.9041 8.90623 13.1021V14.0521C8.90623 14.2104 9.02499 14.3291 9.22287 14.3687H9.81662C9.97498 14.3687 10.0937 14.25 10.1334 14.0521V13.1021C11.3209 12.9041 12.1125 12.0729 12.1125 11.0041Z" fill="white"/>
<path d="M7.48129 15.1604C4.39379 14.0521 2.81042 10.6084 3.9584 7.56038C4.55215 5.89788 5.8584 4.63124 7.48129 4.03749C7.63965 3.95836 7.71879 3.83961 7.71879 3.64163V3.08749C7.71879 2.92913 7.63965 2.81038 7.48129 2.77086C7.44167 2.77086 7.36254 2.77086 7.32292 2.81038C3.56254 3.99788 1.50417 7.99586 2.69167 11.7562C3.40417 13.9729 5.10629 15.675 7.32292 16.3875C7.48129 16.4666 7.63965 16.3875 7.67917 16.2291C7.71879 16.1896 7.71879 16.15 7.71879 16.0709V15.5166C7.71879 15.3979 7.60004 15.2396 7.48129 15.1604ZM11.6772 2.81038C11.5188 2.73124 11.3604 2.81038 11.3209 2.96874C11.2813 3.00836 11.2813 3.04788 11.2813 3.12711V3.68124C11.2813 3.83961 11.4 3.99788 11.5188 4.07711C14.6063 5.18538 16.1897 8.62913 15.0417 11.6771C14.4479 13.3396 13.1417 14.6062 11.5188 15.2C11.3604 15.2791 11.2813 15.3979 11.2813 15.5959V16.15C11.2813 16.3084 11.3604 16.4271 11.5188 16.4666C11.5584 16.4666 11.6375 16.4666 11.6772 16.4271C15.4375 15.2396 17.4959 11.2416 16.3084 7.48124C15.5959 5.22499 13.8542 3.52288 11.6772 2.81038Z" fill="white"/>
</g>
<defs>
<clipPath id="clip0_241_229">
<rect width="19" height="19" fill="white"/>
</clipPath>
</defs>
</svg>

<svg xmlns="http://www.w3.org/2000/svg" width="19" height="19" fill="none"><g clip-path="url(#a)"><path fill="#2775CA" d="M9.5 19c5.26 0 9.5-4.24 9.5-9.5S14.76 0 9.5 0A9.48 9.48 0 0 0 0 9.5C0 14.76 4.24 19 9.5 19Z"/><path fill="#fff" d="M12.11 11c0-1.38-.83-1.86-2.5-2.05-1.18-.16-1.42-.48-1.42-1.03 0-.56.4-.91 1.2-.91.7 0 1.1.23 1.3.83.04.12.16.2.27.2h.64c.16 0 .28-.12.28-.28v-.04a1.98 1.98 0 0 0-1.79-1.62v-.95c0-.16-.12-.28-.31-.32h-.6c-.16 0-.27.12-.31.32v.9c-1.2.16-1.94.96-1.94 1.95 0 1.3.79 1.82 2.45 2.01 1.11.2 1.47.44 1.47 1.07 0 .64-.56 1.07-1.31 1.07-1.03 0-1.39-.43-1.5-1.03-.04-.16-.16-.23-.28-.23h-.67a.27.27 0 0 0-.28.27v.04c.16 1 .79 1.7 2.1 1.9v.95c0 .16.11.28.31.32h.6c.15 0 .27-.12.31-.32v-.95c1.2-.2 1.98-1.03 1.98-2.1Z"/><path fill="#fff" d="M7.48 15.16a5.9 5.9 0 0 1-3.52-7.6 5.86 5.86 0 0 1 3.52-3.52c.16-.08.24-.2.24-.4V3.1c0-.16-.08-.28-.24-.32a7.11 7.11 0 0 0-.16 13.62c.16.08.32 0 .36-.16.04-.04.04-.08.04-.16v-.55c0-.12-.12-.28-.24-.36Zm4.2-12.35c-.16-.08-.32 0-.36.16-.04.04-.04.08-.04.16v.55c0 .16.12.32.24.4a5.9 5.9 0 0 1 3.52 7.6 5.86 5.86 0 0 1-3.52 3.52c-.16.08-.24.2-.24.4v.55c0 .16.08.28.24.32.04 0 .12 0 .16-.04a7.11 7.11 0 0 0 4.63-8.95 7.18 7.18 0 0 0-4.63-4.67Z"/></g><defs><clipPath id="a"><path fill="#fff" d="M0 0h19v19H0z"/></clipPath></defs></svg>
